icon-themes/breeze_svg/cmd/32/entergroup.svg

<svg viewBox="0 0 32 32" xmlns="http://www.w3.org/2000/svg"><path d="m4 4v4h1v-3h3v-1zm20 0v1h3v3h1v-4zm-13 3a4 4 0 0 0 -4 4 4 4 0 0 0 4 4 4 4 0 0 0 4-4 4 4 0 0 0 -4-4zm6 0v8h8v-8zm7.4375 9-5.111328 5.111328-3.28711 3.28711v3.601562h3.603516l8.396484-8.398438zm-16.4375 1v8h6v-8zm14.388672 2.490234 2.162109 2.160157-3.175781 3.175781v-.675781l-1.011719.021484h-1.037109v-1.035156-.585938l1.441406-1.439453zm-4.074219 4.074219v1.621094h1.035156.990235l.021484.652344-1.080078 1.082031h-1.441406l-.71875-.720703v-1.441407zm-14.314453.435547v4h4v-1h-3v-3zm23 0v3h-3v1h4v-4z" fill="#4d4d4d"/></svg>

<svg xmlns="http://www.w3.org/2000/svg" viewBox="0 0 32 32">
 <path 
     style="fill:#4d4d4d" 
     d="M 4 4 L 4 8 L 5 8 L 5 5 L 8 5 L 8 4 L 4 4 z M 24 4 L 24 5 L 27 5 L 27 8 L 28 8 L 28 4 L 24 4 z M 11 7 A 4 4 0 0 0 7 11 A 4 4 0 0 0 11 15 A 4 4 0 0 0 15 11 A 4 4 0 0 0 11 7 z M 17 7 L 17 15 L 25 15 L 25 7 L 17 7 z M 24.4375 16 L 19.326172 21.111328 L 16.039062 24.398438 L 16.039062 28 L 19.642578 28 L 28.039062 19.601562 L 24.4375 16 z M 8 17 L 8 25 L 14 25 L 14 17 L 8 17 z M 22.388672 19.490234 L 24.550781 21.650391 L 21.375 24.826172 L 21.375 24.150391 L 20.363281 24.171875 L 19.326172 24.171875 L 19.326172 23.136719 L 19.326172 22.550781 L 20.767578 21.111328 L 22.388672 19.490234 z M 18.314453 23.564453 L 18.314453 25.185547 L 19.349609 25.185547 L 20.339844 25.185547 L 20.361328 25.837891 L 19.28125 26.919922 L 17.839844 26.919922 L 17.121094 26.199219 L 17.121094 24.757812 L 18.314453 23.564453 z M 4 24 L 4 28 L 8 28 L 8 27 L 5 27 L 5 24 L 4 24 z M 27 24 L 27 27 L 24 27 L 24 28 L 28 28 L 28 24 L 27 24 z "
     />
</svg>
